src/public/img/landing/new/built-for-prod/1.svg

<svg width="64" height="64" viewBox="0 0 64 64" fill="none" xmlns="http://www.w3.org/2000/svg">
<rect width="64" height="64" rx="16" fill="#FCF0ED"/>
<path fill-rule="evenodd" clip-rule="evenodd" d="M30.7662 21.6448C31.2417 21.1621 31.658 21 32 21C32.342 21 32.7583 21.1621 33.2338 21.6448C33.7128 22.131 34.1902 22.8859 34.6125 23.8993C35.3667 25.7096 35.8824 28.1935 35.9823 31H28.0177C28.1176 28.1935 28.6333 25.7096 29.3875 23.8993C29.8098 22.8859 30.2872 22.131 30.7662 21.6448ZM26.0166 31C26.117 27.9772 26.6697 25.2221 27.5414 23.1301C27.7629 22.5984 28.0093 22.0994 28.2803 21.6448C24.3357 23.062 21.4351 26.6691 21.0448 31H26.0166ZM21.0448 33H26.0166C26.117 36.0228 26.6697 38.7779 27.5414 40.8699C27.7629 41.4016 28.0093 41.9006 28.2803 42.3552C24.3357 40.938 21.4351 37.3309 21.0448 33ZM19 32V33H19.0379C19.5485 39.7124 25.1568 45 32 45C38.8432 45 44.4515 39.7124 44.9621 33H45V32V31H44.9621C44.4515 24.2876 38.8432 19 32 19C25.1568 19 19.5485 24.2876 19.0379 31H19V32ZM42.9552 31C42.5649 26.6691 39.6643 23.062 35.7197 21.6448C35.9907 22.0994 36.2371 22.5984 36.4586 23.1301C37.3303 25.2221 37.883 27.9772 37.9834 31H42.9552ZM35.9823 33C35.8824 35.8065 35.3667 38.2904 34.6125 40.1007C34.1902 41.1141 33.7128 41.869 33.2338 42.3552C32.7583 42.8379 32.342 43 32 43C31.658 43 31.2417 42.8379 30.7662 42.3552C30.2872 41.869 29.8098 41.1141 29.3875 40.1007C28.6333 38.2904 28.1176 35.8065 28.0177 33H35.9823ZM37.9834 33H42.9552C42.5649 37.3309 39.6643 40.938 35.7197 42.3552C35.9907 41.9006 36.2371 41.4016 36.4586 40.8699C37.3303 38.7779 37.883 36.0228 37.9834 33Z" fill="#F65128"/>
</svg>

<svg xmlns="http://www.w3.org/2000/svg" width="64" height="64" fill="none">
  <rect width="64" height="64" fill="#FCF0ED" rx="16"/>
  <path fill="#F65128" fill-rule="evenodd" d="M30.766 21.645c.476-.483.892-.645 1.234-.645.342 0 .758.162 1.234.645.479.486.956 1.24 1.378 2.254.755 1.81 1.27 4.294 1.37 7.101h-7.964c.1-2.806.615-5.29 1.37-7.1.422-1.014.9-1.769 1.378-2.255ZM26.016 31c.101-3.023.654-5.778 1.525-7.87.222-.532.468-1.03.74-1.485-3.945 1.417-6.846 5.024-7.236 9.355h4.972Zm-4.971 2h4.972c.1 3.023.653 5.778 1.524 7.87.222.532.468 1.03.74 1.485-3.945-1.417-6.846-5.024-7.236-9.355ZM19 32v1h.038c.51 6.712 6.119 12 12.962 12s12.452-5.288 12.962-12H45v-2h-.038c-.51-6.712-6.119-12-12.962-12s-12.451 5.288-12.962 12H19v1Zm23.955-1c-.39-4.33-3.29-7.938-7.235-9.355.27.454.517.953.739 1.485.871 2.092 1.424 4.847 1.524 7.87h4.972Zm-6.973 2c-.1 2.806-.615 5.29-1.37 7.1-.422 1.014-.9 1.769-1.378 2.255-.476.483-.892.645-1.234.645-.342 0-.758-.162-1.234-.645-.479-.486-.956-1.24-1.378-2.254-.755-1.81-1.27-4.294-1.37-7.101h7.964Zm2.001 0h4.972c-.39 4.33-3.29 7.938-7.235 9.355.27-.454.517-.953.739-1.485.871-2.092 1.424-4.847 1.524-7.87Z" clip-rule="evenodd"/>
</svg>
